; PCB GCode generated by RepRap Java Host Software
; Created: 2011-02-01:21-07-46
; Gerber tracks and pads file: pololu-steppers-power-side.bot
; Drill file: pololu-steppers-power-side.bdr
;#!RECTANGLE: <BOX x:[l:0.0, h:89.0524], y:[l:0.0, h:67.50558000000001]>
;#!LAYER: 1/1
G21 ;metric
G90 ;absolute positioning
M140 S0.0 ;set bed temperature and return
T0; select new extruder
G28; go home
G92 E0 ;zero the extruded length
G1 F50.0; Z feedrate
G1 Z1.0; Z clearance height
G1 F1500.0; XY feedrate
G1 X0.5 Y7.4; move to polygon start
G1 F50.0; Z feedrate
G1 Z0.0; Z drawing height
G1 F1500.0; XY feedrate
G1 X0.8 Y7.3; draw line
G1 X8.9 Y7.1; draw line
G1 X12.8 Y4.6; draw line
G1 X15.1 Y4.7; draw line
G1 X15.0 Y5.0; draw line
G1 X12.8 Y5.0; draw line
G1 X8.9 Y7.6; draw line
G1 X1.1 Y7.7; draw line
G1 X0.9 Y7.9; draw line
G1 X1.0 Y20.3; draw line
G1 X1.6 Y20.5; draw line
G1 X3.7 Y20.5; draw line
G1 X3.6 Y20.9; draw line
G1 X1.3 Y20.9; draw line
G1 X1.1 Y21.1; draw line
G1 X1.0 Y21.8; draw line
G1 X1.1 Y37.2; draw line
G1 X1.2 Y37.5; draw line
G1 X1.5 Y37.6; draw line
G1 X17.6 Y37.6; draw line
G1 X18.4 Y36.8; draw line
G1 X18.4 Y35.2; draw line
G1 X18.7 Y35.1; draw line
G1 X22.7 Y35.0; draw line
G1 X22.6 Y35.5; draw line
G1 X19.1 Y35.5; draw line
G1 X18.8 Y35.7; draw line
G1 X18.7 Y36.8; draw line
G1 X17.6 Y37.6; draw line
G1 X17.6 Y38.0; draw line
G1 X15.2 Y38.1; draw line
G1 X15.0 Y38.3; draw line
G1 X15.0 Y46.7; draw line
G1 X15.2 Y47.0; draw line
G1 X15.5 Y47.2; draw line
G1 X78.9 Y47.2; draw line
G1 X79.2 Y46.9; draw line
G1 X79.3 Y46.2; draw line
G1 X79.4 Y40.9; draw line
G1 X83.1 Y37.1; draw line
G1 X83.5 Y37.3; draw line
G1 X79.7 Y41.0; draw line
G1 X79.7 Y47.3; draw line
G1 X79.5 Y47.5; draw line
G1 X14.6 Y47.5; draw line
G1 X14.6 Y38.5; draw line
G1 X14.4 Y38.2; draw line
G1 X13.9 Y38.0; draw line
G1 X0.7 Y37.9; draw line
G1 X0.5 Y7.4; draw back to polygon start
G1 F50.0; Z feedrate
G1 Z1.0; Z clearance height
G1 F1500.0; XY feedrate
G1 X3.5 Y10.1; move to polygon start
G1 F50.0; Z feedrate
G1 Z0.0; Z drawing height
G1 F1500.0; XY feedrate
G1 X3.7 Y9.7; draw line
G1 X8.6 Y9.7; draw line
G1 X8.7 Y10.3; draw line
G1 X7.9 Y10.8; draw line
G1 X7.8 Y11.4; draw line
G1 X6.7 Y11.3; draw line
G1 X5.9 Y11.5; draw line
G1 X5.4 Y12.0; draw line
G1 X5.3 Y14.9; draw line
G1 X4.5 Y14.6; draw line
G1 X4.5 Y13.7; draw line
G1 X4.4 Y13.7; draw line
G1 X4.4 Y10.4; draw line
G1 X6.2 Y10.4; draw line
G1 X6.3 Y10.6; draw line
G1 X5.8 Y10.6; draw line
G1 X4.8 Y11.4; draw line
G1 X4.6 Y12.1; draw line
G1 X4.5 Y14.6; draw line
G1 X3.8 Y15.1; draw line
G1 X3.6 Y15.6; draw line
G1 X3.5 Y10.1; draw back to polygon start
G1 F50.0; Z feedrate
G1 Z1.0; Z clearance height
G1 F1500.0; XY feedrate
G1 X9.7 Y11.5; move to polygon start
G1 F50.0; Z feedrate
G1 Z0.0; Z drawing height
G1 F1500.0; XY feedrate
G1 X9.7 Y11.1; draw line
G1 X15.5 Y11.0; draw line
G1 X15.8 Y10.8; draw line
G1 X15.8 Y9.4; draw line
G1 X16.2 Y9.5; draw line
G1 X16.4 Y10.9; draw line
G1 X16.8 Y11.1; draw line
G1 X22.5 Y11.1; draw line
G1 X22.4 Y11.5; draw line
G1 X9.7 Y11.5; draw back to polygon start
G1 F50.0; Z feedrate
G1 Z1.0; Z clearance height
G1 F1500.0; XY feedrate
G1 X10.1 Y14.0; move to polygon start
G1 F50.0; Z feedrate
G1 Z0.0; Z drawing height
G1 F1500.0; XY feedrate
G1 X10.3 Y13.5; draw line
G1 X12.2 Y13.6; draw line
G1 X22.9 Y13.7; draw line
G1 X22.8 Y14.0; draw line
G1 X10.1 Y14.0; draw back to polygon start
G1 F50.0; Z feedrate
G1 Z1.0; Z clearance height
G1 F1500.0; XY feedrate
G1 X10.6 Y16.4; move to polygon start
G1 F50.0; Z feedrate
G1 Z0.0; Z drawing height
G1 F1500.0; XY feedrate
G1 X10.6 Y16.1; draw line
G1 X13.9 Y16.0; draw line
G1 X13.7 Y16.4; draw line
G1 X10.6 Y16.4; draw back to polygon start
G1 F50.0; Z feedrate
G1 Z1.0; Z clearance height
G1 F1500.0; XY feedrate
G1 X11.0 Y18.6; move to polygon start
G1 F50.0; Z feedrate
G1 Z0.0; Z drawing height
G1 F1500.0; XY feedrate
G1 X13.8 Y18.7; draw line
G1 X13.8 Y19.0; draw line
G1 X11.0 Y18.9; draw line
G1 X11.0 Y18.6; draw back to polygon start
G1 F50.0; Z feedrate
G1 Z1.0; Z clearance height
G1 F1500.0; XY feedrate
G1 X11.5 Y21.1; move to polygon start
G1 F50.0; Z feedrate
G1 Z0.0; Z drawing height
G1 F1500.0; XY feedrate
G1 X13.8 Y21.1; draw line
G1 X13.8 Y21.5; draw line
G1 X11.5 Y21.5; draw line
G1 X11.5 Y21.1; draw back to polygon start
G1 F50.0; Z feedrate
G1 Z1.0; Z clearance height
G1 F1500.0; XY feedrate
G1 X11.9 Y23.6; move to polygon start
G1 F50.0; Z feedrate
G1 Z0.0; Z drawing height
G1 F1500.0; XY feedrate
G1 X13.8 Y23.6; draw line
G1 X13.7 Y24.0; draw line
G1 X11.9 Y23.9; draw line
G1 X11.9 Y23.6; draw back to polygon start
G1 F50.0; Z feedrate
G1 Z1.0; Z clearance height
G1 F1500.0; XY feedrate
G1 X12.4 Y26.1; move to polygon start
G1 F50.0; Z feedrate
G1 Z0.0; Z drawing height
G1 F1500.0; XY feedrate
G1 X24.4 Y26.2; draw line
G1 X25.1 Y26.2; draw line
G1 X25.1 Y26.6; draw line
G1 X19.8 Y26.6; draw line
G1 X19.5 Y26.8; draw line
G1 X19.4 Y28.1; draw line
G1 X19.0 Y28.0; draw line
G1 X18.8 Y26.7; draw line
G1 X18.5 Y26.6; draw line
G1 X12.4 Y26.4; draw line
G1 X12.4 Y26.1; draw back to polygon start
G1 F50.0; Z feedrate
G1 Z1.0; Z clearance height
G1 F1500.0; XY feedrate
G1 X4.3 Y26.7; move to polygon start
G1 F50.0; Z feedrate
G1 Z0.0; Z drawing height
G1 F1500.0; XY feedrate
G1 X4.8 Y26.8; draw line
G1 X5.5 Y26.3; draw line
G1 X5.6 Y25.4; draw line
G1 X5.8 Y25.6; draw line
G1 X6.0 Y27.4; draw line
G1 X6.4 Y27.6; draw line
G1 X9.2 Y27.7; draw line
G1 X9.2 Y28.3; draw line
G1 X8.5 Y28.5; draw line
G1 X8.9 Y29.2; draw line
G1 X5.2 Y29.2; draw line
G1 X5.7 Y28.2; draw line
G1 X6.2 Y28.4; draw line
G1 X9.2 Y28.3; draw line
G1 X9.9 Y28.6; draw line
G1 X10.9 Y28.6; draw line
G1 X10.9 Y29.0; draw line
G1 X11.2 Y29.5; draw line
G1 X11.6 Y29.8; draw line
G1 X12.1 Y29.8; draw line
G1 X12.3 Y29.7; draw line
G1 X12.7 Y31.6; draw line
G1 X13.1 Y32.5; draw line
G1 X13.5 Y32.6; draw line
G1 X18.2 Y32.5; draw line
G1 X18.2 Y32.8; draw line
G1 X13.4 Y32.9; draw line
G1 X12.7 Y32.8; draw line
G1 X12.1 Y30.5; draw line
G1 X11.9 Y30.2; draw line
G1 X11.5 Y30.0; draw line
G1 X4.6 Y30.0; draw line
G1 X4.4 Y29.2; draw line
G1 X4.3 Y26.7; draw back to polygon start
G1 F50.0; Z feedrate
G1 Z1.0; Z clearance height
G1 F1500.0; XY feedrate
G1 X5.2 Y19.9; move to polygon start
G1 F50.0; Z feedrate
G1 Z0.0; Z drawing height
G1 F1500.0; XY feedrate
G1 X6.9 Y18.1; draw line
G1 X7.0 Y13.6; draw line
G1 X8.3 Y13.4; draw line
G1 X8.3 Y13.9; draw line
G1 X7.7 Y13.9; draw line
G1 X7.4 Y14.1; draw line
G1 X7.3 Y14.8; draw line
G1 X7.3 Y18.2; draw line
G1 X5.5 Y20.1; draw line
G1 X5.2 Y19.9; draw back to polygon start
G1 F50.0; Z feedrate
G1 Z1.0; Z clearance height
G1 F1500.0; XY feedrate
G1 X20.1 Y32.8; move to polygon start
G1 F50.0; Z feedrate
G1 Z0.0; Z drawing height
G1 F1500.0; XY feedrate
G1 X20.2 Y32.5; draw line
G1 X23.3 Y32.4; draw line
G1 X25.7 Y29.5; draw line
G1 X26.0 Y29.6; draw line
G1 X23.6 Y32.7; draw line
G1 X21.7 Y32.9; draw line
G1 X20.1 Y32.8; draw back to polygon start
G1 F50.0; Z feedrate
G1 Z1.0; Z clearance height
G1 F1500.0; XY feedrate
G1 X19.5 Y40.2; move to polygon start
G1 F50.0; Z feedrate
G1 Z0.0; Z drawing height
G1 F1500.0; XY feedrate
G1 X25.2 Y40.1; draw line
G1 X25.6 Y40.2; draw line
G1 X26.9 Y40.1; draw line
G1 X27.2 Y39.8; draw line
G1 X27.3 Y31.4; draw line
G1 X27.6 Y31.3; draw line
G1 X35.6 Y31.2; draw line
G1 X39.4 Y27.5; draw line
G1 X39.8 Y27.5; draw line
G1 X40.6 Y26.6; draw line
G1 X40.6 Y23.8; draw line
G1 X40.9 Y23.6; draw line
G1 X44.3 Y23.6; draw line
G1 X44.2 Y24.0; draw line
G1 X41.3 Y24.1; draw line
G1 X41.0 Y24.4; draw line
G1 X41.0 Y26.6; draw line
G1 X39.8 Y27.5; draw line
G1 X39.8 Y27.8; draw line
G1 X39.3 Y28.1; draw line
G1 X35.6 Y31.6; draw line
G1 X28.0 Y31.7; draw line
G1 X27.7 Y32.0; draw line
G1 X27.6 Y40.4; draw line
G1 X27.5 Y40.6; draw line
G1 X19.5 Y40.6; draw line
G1 X19.5 Y40.2; draw back to polygon start
G1 F50.0; Z feedrate
G1 Z1.0; Z clearance height
G1 F1500.0; XY feedrate
G1 X32.2 Y35.5; move to polygon start
G1 F50.0; Z feedrate
G1 Z0.0; Z drawing height
G1 F1500.0; XY feedrate
G1 X32.2 Y35.1; draw line
G1 X36.9 Y35.0; draw line
G1 X39.5 Y32.6; draw line
G1 X39.9 Y32.5; draw line
G1 X39.7 Y32.9; draw line
G1 X37.0 Y35.6; draw line
G1 X36.8 Y37.8; draw line
G1 X37.7 Y38.6; draw line
G1 X40.0 Y38.6; draw line
G1 X39.8 Y39.0; draw line
G1 X37.6 Y39.0; draw line
G1 X36.8 Y37.8; draw line
G1 X36.5 Y37.7; draw line
G1 X36.5 Y35.8; draw line
G1 X35.9 Y35.5; draw line
G1 X32.2 Y35.5; draw back to polygon start
G1 F50.0; Z feedrate
G1 Z1.0; Z clearance height
G1 F1500.0; XY feedrate
G1 X27.4 Y29.0; move to polygon start
G1 F50.0; Z feedrate
G1 Z0.0; Z drawing height
G1 F1500.0; XY feedrate
G1 X27.5 Y28.6; draw line
G1 X30.7 Y28.7; draw line
G1 X34.3 Y28.7; draw line
G1 X35.5 Y27.5; draw line
G1 X35.5 Y20.8; draw line
G1 X35.9 Y20.5; draw line
G1 X37.3 Y20.6; draw line
G1 X37.3 Y20.9; draw line
G1 X36.1 Y21.0; draw line
G1 X35.9 Y21.2; draw line
G1 X35.9 Y27.7; draw line
G1 X34.5 Y29.0; draw line
G1 X27.4 Y29.0; draw back to polygon start
G1 F50.0; Z feedrate
G1 Z1.0; Z clearance height
G1 F1500.0; XY feedrate
G1 X27.1 Y26.2; move to polygon start
G1 F50.0; Z feedrate
G1 Z0.0; Z drawing height
G1 F1500.0; XY feedrate
G1 X32.6 Y26.2; draw line
G1 X32.9 Y25.9; draw line
G1 X33.0 Y16.9; draw line
G1 X33.4 Y16.8; draw line
G1 X37.3 Y16.9; draw line
G1 X37.3 Y17.2; draw line
G1 X33.7 Y17.2; draw line
G1 X33.5 Y17.4; draw line
G1 X33.4 Y18.0; draw line
G1 X33.2 Y26.5; draw line
G1 X26.9 Y26.6; draw line
G1 X27.1 Y26.2; draw back to polygon start
G1 F50.0; Z feedrate
G1 Z1.0; Z clearance height
G1 F1500.0; XY feedrate
G1 X26.5 Y23.6; move to polygon start
G1 F50.0; Z feedrate
G1 Z0.0; Z drawing height
G1 F1500.0; XY feedrate
G1 X29.1 Y23.6; draw line
G1 X29.0 Y23.9; draw line
G1 X26.5 Y23.9; draw line
G1 X26.5 Y23.6; draw back to polygon start
G1 F50.0; Z feedrate
G1 Z1.0; Z clearance height
G1 F1500.0; XY feedrate
G1 X26.1 Y21.1; move to polygon start
G1 F50.0; Z feedrate
G1 Z0.0; Z drawing height
G1 F1500.0; XY feedrate
G1 X29.0 Y21.2; draw line
G1 X29.0 Y21.5; draw line
G1 X26.1 Y21.4; draw line
G1 X26.1 Y21.1; draw back to polygon start
G1 F50.0; Z feedrate
G1 Z1.0; Z clearance height
G1 F1500.0; XY feedrate
G1 X25.7 Y18.6; move to polygon start
G1 F50.0; Z feedrate
G1 Z0.0; Z drawing height
G1 F1500.0; XY feedrate
G1 X29.0 Y18.7; draw line
G1 X29.0 Y19.0; draw line
G1 X25.7 Y18.9; draw line
G1 X25.7 Y18.6; draw back to polygon start
G1 F50.0; Z feedrate
G1 Z1.0; Z clearance height
G1 F1500.0; XY feedrate
G1 X25.2 Y16.1; move to polygon start
G1 F50.0; Z feedrate
G1 Z0.0; Z drawing height
G1 F1500.0; XY feedrate
G1 X29.0 Y16.1; draw line
G1 X29.0 Y16.4; draw line
G1 X25.2 Y16.4; draw line
G1 X25.2 Y16.1; draw back to polygon start
G1 F50.0; Z feedrate
G1 Z1.0; Z clearance height
G1 F1500.0; XY feedrate
G1 X24.8 Y13.6; move to polygon start
G1 F50.0; Z feedrate
G1 Z0.0; Z drawing height
G1 F1500.0; XY feedrate
G1 X44.3 Y13.6; draw line
G1 X44.2 Y14.0; draw line
G1 X24.8 Y14.0; draw line
G1 X24.8 Y13.6; draw back to polygon start
G1 F50.0; Z feedrate
G1 Z1.0; Z clearance height
G1 F1500.0; XY feedrate
G1 X24.3 Y11.5; move to polygon start
G1 F50.0; Z feedrate
G1 Z0.0; Z drawing height
G1 F1500.0; XY feedrate
G1 X24.4 Y11.1; draw line
G1 X38.4 Y11.1; draw line
G1 X38.3 Y11.5; draw line
G1 X24.3 Y11.5; draw back to polygon start
G1 F50.0; Z feedrate
G1 Z1.0; Z clearance height
G1 F1500.0; XY feedrate
G1 X39.2 Y6.0; move to polygon start
G1 F50.0; Z feedrate
G1 Z0.0; Z drawing height
G1 F1500.0; XY feedrate
G1 X39.6 Y6.1; draw line
G1 X39.6 Y7.7; draw line
G1 X39.2 Y7.6; draw line
G1 X39.2 Y6.0; draw back to polygon start
G1 F50.0; Z feedrate
G1 Z1.0; Z clearance height
G1 F1500.0; XY feedrate
G1 X40.3 Y11.3; move to polygon start
G1 F50.0; Z feedrate
G1 Z0.0; Z drawing height
G1 F1500.0; XY feedrate
G1 X40.3 Y11.1; draw line
G1 X44.3 Y11.2; draw line
G1 X44.2 Y11.5; draw line
G1 X40.3 Y11.3; draw back to polygon start
G1 F50.0; Z feedrate
G1 Z1.0; Z clearance height
G1 F1500.0; XY feedrate
G1 X39.2 Y17.2; move to polygon start
G1 F50.0; Z feedrate
G1 Z0.0; Z drawing height
G1 F1500.0; XY feedrate
G1 X39.2 Y16.8; draw line
G1 X44.6 Y16.8; draw line
G1 X44.3 Y17.2; draw line
G1 X39.2 Y17.2; draw back to polygon start
G1 F50.0; Z feedrate
G1 Z1.0; Z clearance height
G1 F1500.0; XY feedrate
G1 X39.2 Y20.7; move to polygon start
G1 F50.0; Z feedrate
G1 Z0.0; Z drawing height
G1 F1500.0; XY feedrate
G1 X39.2 Y20.3; draw line
G1 X51.3 Y20.3; draw line
G1 X51.1 Y20.7; draw line
G1 X39.2 Y20.7; draw back to polygon start
G1 F50.0; Z feedrate
G1 Z1.0; Z clearance height
G1 F1500.0; XY feedrate
G1 X46.2 Y23.6; move to polygon start
G1 F50.0; Z feedrate
G1 Z0.0; Z drawing height
G1 F1500.0; XY feedrate
G1 X49.7 Y23.6; draw line
G1 X49.9 Y24.0; draw line
G1 X49.9 Y26.6; draw line
G1 X49.5 Y26.6; draw line
G1 X49.4 Y24.5; draw line
G1 X49.3 Y24.2; draw line
G1 X48.9 Y24.0; draw line
G1 X46.2 Y23.9; draw line
G1 X46.2 Y23.6; draw back to polygon start
G1 F50.0; Z feedrate
G1 Z1.0; Z clearance height
G1 F1500.0; XY feedrate
G1 X45.9 Y16.7; move to polygon start
G1 F50.0; Z feedrate
G1 Z0.0; Z drawing height
G1 F1500.0; XY feedrate
G1 X51.3 Y16.8; draw line
G1 X51.2 Y17.2; draw line
G1 X46.1 Y17.2; draw line
G1 X45.9 Y16.7; draw back to polygon start
G1 F50.0; Z feedrate
G1 Z1.0; Z clearance height
G1 F1500.0; XY feedrate
G1 X46.1 Y13.9; move to polygon start
G1 F50.0; Z feedrate
G1 Z0.0; Z drawing height
G1 F1500.0; XY feedrate
G1 X46.2 Y13.6; draw line
G1 X64.8 Y13.6; draw line
G1 X64.7 Y14.0; draw line
G1 X46.1 Y13.9; draw back to polygon start
G1 F50.0; Z feedrate
G1 Z1.0; Z clearance height
G1 F1500.0; XY feedrate
G1 X46.2 Y11.1; move to polygon start
G1 F50.0; Z feedrate
G1 Z0.0; Z drawing height
G1 F1500.0; XY feedrate
G1 X49.8 Y11.0; draw line
G1 X50.0 Y10.9; draw line
G1 X50.2 Y10.2; draw line
G1 X50.5 Y10.3; draw line
G1 X50.6 Y10.8; draw line
G1 X51.2 Y11.1; draw line
G1 X64.3 Y11.2; draw line
G1 X64.3 Y11.5; draw line
G1 X46.1 Y11.5; draw line
G1 X46.2 Y11.1; draw back to polygon start
G1 F50.0; Z feedrate
G1 Z1.0; Z clearance height
G1 F1500.0; XY feedrate
G1 X48.0 Y4.9; move to polygon start
G1 F50.0; Z feedrate
G1 Z0.0; Z drawing height
G1 F1500.0; XY feedrate
G1 X50.0 Y4.8; draw line
G1 X50.4 Y4.6; draw line
G1 X72.3 Y4.5; draw line
G1 X72.2 Y4.9; draw line
G1 X51.3 Y4.9; draw line
G1 X50.6 Y5.8; draw line
G1 X50.0 Y5.6; draw line
G1 X49.9 Y5.3; draw line
G1 X48.0 Y5.2; draw line
G1 X48.0 Y4.9; draw back to polygon start
G1 F50.0; Z feedrate
G1 Z1.0; Z clearance height
G1 F1500.0; XY feedrate
G1 X53.2 Y16.7; move to polygon start
G1 F50.0; Z feedrate
G1 Z0.0; Z drawing height
G1 F1500.0; XY feedrate
G1 X57.4 Y16.7; draw line
G1 X57.5 Y17.5; draw line
G1 X57.6 Y25.9; draw line
G1 X58.1 Y26.1; draw line
G1 X67.0 Y26.1; draw line
G1 X67.0 Y26.5; draw line
G1 X57.2 Y26.5; draw line
G1 X57.1 Y26.1; draw line
G1 X57.1 Y17.3; draw line
G1 X56.4 Y17.0; draw line
G1 X53.2 Y17.1; draw line
G1 X53.2 Y16.7; draw back to polygon start
G1 F50.0; Z feedrate
G1 Z1.0; Z clearance height
G1 F1500.0; XY feedrate
G1 X53.1 Y20.7; move to polygon start
G1 F50.0; Z feedrate
G1 Z0.0; Z drawing height
G1 F1500.0; XY feedrate
G1 X53.2 Y20.3; draw line
G1 X54.9 Y20.5; draw line
G1 X55.1 Y28.5; draw line
G1 X55.8 Y28.7; draw line
G1 X67.4 Y28.6; draw line
G1 X67.3 Y29.0; draw line
G1 X68.0 Y29.8; draw line
G1 X68.4 Y29.8; draw line
G1 X68.2 Y32.0; draw line
G1 X68.3 Y32.3; draw line
G1 X68.6 Y32.4; draw line
G1 X74.1 Y32.0; draw line
G1 X74.1 Y32.2; draw line
G1 X68.6 Y32.8; draw line
G1 X68.3 Y32.9; draw line
G1 X67.9 Y35.4; draw line
G1 X67.9 Y35.6; draw line
G1 X67.4 Y35.5; draw line
G1 X67.8 Y32.9; draw line
G1 X67.7 Y32.8; draw line
G1 X67.3 Y29.0; draw line
G1 X56.2 Y29.0; draw line
G1 X54.7 Y29.0; draw line
G1 X54.5 Y20.9; draw line
G1 X53.8 Y20.7; draw line
G1 X53.1 Y20.7; draw back to polygon start
G1 F50.0; Z feedrate
G1 Z1.0; Z clearance height
G1 F1500.0; XY feedrate
G1 X62.0 Y21.5; move to polygon start
G1 F50.0; Z feedrate
G1 Z0.0; Z drawing height
G1 F1500.0; XY feedrate
G1 X62.2 Y21.1; draw line
G1 X66.1 Y21.1; draw line
G1 X66.0 Y21.5; draw line
G1 X62.0 Y21.5; draw back to polygon start
G1 F50.0; Z feedrate
G1 Z1.0; Z clearance height
G1 F1500.0; XY feedrate
G1 X62.1 Y23.6; move to polygon start
G1 F50.0; Z feedrate
G1 Z0.0; Z drawing height
G1 F1500.0; XY feedrate
G1 X66.5 Y23.6; draw line
G1 X66.5 Y23.9; draw line
G1 X62.1 Y23.9; draw line
G1 X62.1 Y23.6; draw back to polygon start
G1 F50.0; Z feedrate
G1 Z1.0; Z clearance height
G1 F1500.0; XY feedrate
G1 X62.1 Y18.6; move to polygon start
G1 F50.0; Z feedrate
G1 Z0.0; Z drawing height
G1 F1500.0; XY feedrate
G1 X65.6 Y18.7; draw line
G1 X65.6 Y19.0; draw line
G1 X62.1 Y18.9; draw line
G1 X62.1 Y18.6; draw back to polygon start
G1 F50.0; Z feedrate
G1 Z1.0; Z clearance height
G1 F1500.0; XY feedrate
G1 X62.1 Y16.0; move to polygon start
G1 F50.0; Z feedrate
G1 Z0.0; Z drawing height
G1 F1500.0; XY feedrate
G1 X65.2 Y16.1; draw line
G1 X65.2 Y16.4; draw line
G1 X62.1 Y16.3; draw line
G1 X62.1 Y16.0; draw back to polygon start
G1 F50.0; Z feedrate
G1 Z1.0; Z clearance height
G1 F1500.0; XY feedrate
G1 X66.7 Y13.6; move to polygon start
G1 F50.0; Z feedrate
G1 Z0.0; Z drawing height
G1 F1500.0; XY feedrate
G1 X79.4 Y13.6; draw line
G1 X79.4 Y14.0; draw line
G1 X66.7 Y13.9; draw line
G1 X66.7 Y13.6; draw back to polygon start
G1 F50.0; Z feedrate
G1 Z1.0; Z clearance height
G1 F1500.0; XY feedrate
G1 X66.2 Y11.1; move to polygon start
G1 F50.0; Z feedrate
G1 Z0.0; Z drawing height
G1 F1500.0; XY feedrate
G1 X72.7 Y11.0; draw line
G1 X73.0 Y10.7; draw line
G1 X73.0 Y8.3; draw line
G1 X73.4 Y8.4; draw line
G1 X73.4 Y10.8; draw line
G1 X74.0 Y11.1; draw line
G1 X78.9 Y11.1; draw line
G1 X78.9 Y11.5; draw line
G1 X66.2 Y11.4; draw line
G1 X66.2 Y11.1; draw back to polygon start
G1 F50.0; Z feedrate
G1 Z1.0; Z clearance height
G1 F1500.0; XY feedrate
G1 X74.2 Y4.6; move to polygon start
G1 F50.0; Z feedrate
G1 Z0.0; Z drawing height
G1 F1500.0; XY feedrate
G1 X74.5 Y4.6; draw line
G1 X78.4 Y8.3; draw line
G1 X87.2 Y8.4; draw line
G1 X88.6 Y9.8; draw line
G1 X88.6 Y29.0; draw line
G1 X83.9 Y29.0; draw line
G1 X83.2 Y29.9; draw line
G1 X83.2 Y32.2; draw line
G1 X82.9 Y32.3; draw line
G1 X82.0 Y32.2; draw line
G1 X76.0 Y32.2; draw line
G1 X76.1 Y31.8; draw line
G1 X82.4 Y31.8; draw line
G1 X82.7 Y31.5; draw line
G1 X82.8 Y29.8; draw line
G1 X83.9 Y29.0; draw line
G1 X84.0 Y28.6; draw line
G1 X87.9 Y28.7; draw line
G1 X88.1 Y28.5; draw line
G1 X88.3 Y27.8; draw line
G1 X88.2 Y10.1; draw line
G1 X88.1 Y9.8; draw line
G1 X87.1 Y8.8; draw line
G1 X78.1 Y8.6; draw line
G1 X74.2 Y4.9; draw line
G1 X74.2 Y4.6; draw back to polygon start
G1 F50.0; Z feedrate
G1 Z1.0; Z clearance height
G1 F1500.0; XY feedrate
G1 X79.0 Y1.4; move to polygon start
G1 F50.0; Z feedrate
G1 Z0.0; Z drawing height
G1 F1500.0; XY feedrate
G1 X79.3 Y0.8; draw line
G1 X80.2 Y0.5; draw line
G1 X80.8 Y0.8; draw line
G1 X80.6 Y1.0; draw line
G1 X80.6 Y1.5; draw line
G1 X80.9 Y1.7; draw line
G1 X81.3 Y1.7; draw line
G1 X80.8 Y2.0; draw line
G1 X80.6 Y2.6; draw line
G1 X80.7 Y2.8; draw line
G1 X80.1 Y3.5; draw line
G1 X79.8 Y3.1; draw line
G1 X80.0 Y2.8; draw line
G1 X79.9 Y2.3; draw line
G1 X79.6 Y2.1; draw line
G1 X79.2 Y2.2; draw line
G1 X79.0 Y1.4; draw back to polygon start
G1 F50.0; Z feedrate
G1 Z1.0; Z clearance height
G1 F1500.0; XY feedrate
G1 X80.8 Y11.1; move to polygon start
G1 F50.0; Z feedrate
G1 Z0.0; Z drawing height
G1 F1500.0; XY feedrate
G1 X86.0 Y11.0; draw line
G1 X86.0 Y26.4; draw line
G1 X83.5 Y26.4; draw line
G1 X83.5 Y26.1; draw line
G1 X85.3 Y26.0; draw line
G1 X85.6 Y25.8; draw line
G1 X85.7 Y25.2; draw line
G1 X85.6 Y11.8; draw line
G1 X85.5 Y11.5; draw line
G1 X85.1 Y11.3; draw line
G1 X80.8 Y11.4; draw line
G1 X80.8 Y11.1; draw back to polygon start
G1 F50.0; Z feedrate
G1 Z1.0; Z clearance height
G1 F1500.0; XY feedrate
G1 X77.3 Y16.4; move to polygon start
G1 F50.0; Z feedrate
G1 Z0.0; Z drawing height
G1 F1500.0; XY feedrate
G1 X77.4 Y16.1; draw line
G1 X79.9 Y16.1; draw line
G1 X79.8 Y16.4; draw line
G1 X77.3 Y16.4; draw back to polygon start
G1 F50.0; Z feedrate
G1 Z1.0; Z clearance height
G1 F1500.0; XY feedrate
G1 X77.3 Y18.6; move to polygon start
G1 F50.0; Z feedrate
G1 Z0.0; Z drawing height
G1 F1500.0; XY feedrate
G1 X80.3 Y18.7; draw line
G1 X80.3 Y19.0; draw line
G1 X77.3 Y18.9; draw line
G1 X77.3 Y18.6; draw back to polygon start
G1 F50.0; Z feedrate
G1 Z1.0; Z clearance height
G1 F1500.0; XY feedrate
G1 X77.3 Y21.1; move to polygon start
G1 F50.0; Z feedrate
G1 Z0.0; Z drawing height
G1 F1500.0; XY feedrate
G1 X80.7 Y21.2; draw line
G1 X80.6 Y21.5; draw line
G1 X77.3 Y21.4; draw line
G1 X77.3 Y21.1; draw back to polygon start
G1 F50.0; Z feedrate
G1 Z1.0; Z clearance height
G1 F1500.0; XY feedrate
G1 X77.3 Y23.6; move to polygon start
G1 F50.0; Z feedrate
G1 Z0.0; Z drawing height
G1 F1500.0; XY feedrate
G1 X81.1 Y23.6; draw line
G1 X81.1 Y23.9; draw line
G1 X77.3 Y23.9; draw line
G1 X77.3 Y23.6; draw back to polygon start
G1 F50.0; Z feedrate
G1 Z1.0; Z clearance height
G1 F1500.0; XY feedrate
G1 X68.8 Y26.5; move to polygon start
G1 F50.0; Z feedrate
G1 Z0.0; Z drawing height
G1 F1500.0; XY feedrate
G1 X68.9 Y26.1; draw line
G1 X81.6 Y26.2; draw line
G1 X81.6 Y26.5; draw line
G1 X75.6 Y26.5; draw line
G1 X75.3 Y26.8; draw line
G1 X75.2 Y27.4; draw line
G1 X74.9 Y27.4; draw line
G1 X74.7 Y26.6; draw line
G1 X74.2 Y26.5; draw line
G1 X68.8 Y26.5; draw back to polygon start
G1 F50.0; Z feedrate
G1 Z1.0; Z clearance height
G1 F1500.0; XY feedrate
G1 X62.1 Y33.0; move to polygon start
G1 F50.0; Z feedrate
G1 Z0.0; Z drawing height
G1 F1500.0; XY feedrate
G1 X62.5 Y32.7; draw line
G1 X62.6 Y35.5; draw line
G1 X62.2 Y35.5; draw line
G1 X62.1 Y33.0; draw back to polygon start
G1 F50.0; Z feedrate
G1 Z1.0; Z clearance height
G1 F1500.0; XY feedrate
G1 X64.0 Y40.6; move to polygon start
G1 F50.0; Z feedrate
G1 Z0.0; Z drawing height
G1 F1500.0; XY feedrate
G1 X64.1 Y39.1; draw line
G1 X64.7 Y38.1; draw line
G1 X64.7 Y37.5; draw line
G1 X65.1 Y37.6; draw line
G1 X65.1 Y38.5; draw line
G1 X64.5 Y39.2; draw line
G1 X64.4 Y40.6; draw line
G1 X64.0 Y40.6; draw back to polygon start
G1 F50.0; Z feedrate
G1 Z1.0; Z clearance height
G1 F1500.0; XY feedrate
G1 X67.8 Y41.5; move to polygon start
G1 F50.0; Z feedrate
G1 Z0.0; Z drawing height
G1 F1500.0; XY feedrate
G1 X70.9 Y41.5; draw line
G1 X70.9 Y41.8; draw line
G1 X67.8 Y41.8; draw line
G1 X67.8 Y41.5; draw back to polygon start
G1 F50.0; Z feedrate
G1 Z1.0; Z clearance height
G1 F1500.0; XY feedrate
G1 X72.8 Y37.6; move to polygon start
G1 F50.0; Z feedrate
G1 Z0.0; Z drawing height
G1 F1500.0; XY feedrate
G1 X75.6 Y37.6; draw line
G1 X75.9 Y37.4; draw line
G1 X76.6 Y37.6; draw line
G1 X76.4 Y37.9; draw line
G1 X74.9 Y38.1; draw line
G1 X74.7 Y38.3; draw line
G1 X74.6 Y40.6; draw line
G1 X74.3 Y40.6; draw line
G1 X74.2 Y38.5; draw line
G1 X74.1 Y38.2; draw line
G1 X73.7 Y38.0; draw line
G1 X72.8 Y38.0; draw line
G1 X72.8 Y37.6; draw back to polygon start
G1 F50.0; Z feedrate
G1 Z1.0; Z clearance height
G1 F1500.0; XY feedrate
G1 X70.9 Y53.8; move to polygon start
G1 F50.0; Z feedrate
G1 Z0.0; Z drawing height
G1 F1500.0; XY feedrate
G1 X71.0 Y52.9; draw line
G1 X71.4 Y52.7; draw line
G1 X78.8 Y52.7; draw line
G1 X78.8 Y53.9; draw line
G1 X78.4 Y53.8; draw line
G1 X77.8 Y54.2; draw line
G1 X77.6 Y55.0; draw line
G1 X72.0 Y55.1; draw line
G1 X71.8 Y54.4; draw line
G1 X72.7 Y54.2; draw line
G1 X72.2 Y53.5; draw line
G1 X77.2 Y53.6; draw line
G1 X76.9 Y54.2; draw line
G1 X71.8 Y54.4; draw line
G1 X71.5 Y54.1; draw line
G1 X70.9 Y53.8; draw back to polygon start
G1 F50.0; Z feedrate
G1 Z1.0; Z clearance height
G1 F1500.0; XY feedrate
G1 X71.5 Y60.8; move to polygon start
G1 F50.0; Z feedrate
G1 Z0.0; Z drawing height
G1 F1500.0; XY feedrate
G1 X71.9 Y60.5; draw line
G1 X72.0 Y59.9; draw line
G1 X72.8 Y60.0; draw line
G1 X72.8 Y59.7; draw line
G1 X74.5 Y58.0; draw line
G1 X75.4 Y58.1; draw line
G1 X73.4 Y60.1; draw line
G1 X72.0 Y59.9; draw line
G1 X71.9 Y59.5; draw line
G1 X71.6 Y59.2; draw line
G1 X72.2 Y59.0; draw line
G1 X74.3 Y57.2; draw line
G1 X77.6 Y57.1; draw line
G1 X77.6 Y57.9; draw line
G1 X76.9 Y58.0; draw line
G1 X73.7 Y60.9; draw line
G1 X71.5 Y60.8; draw back to polygon start
G1 F50.0; Z feedrate
G1 Z1.0; Z clearance height
G1 F1500.0; XY feedrate
G1 X69.1 Y64.7; move to polygon start
G1 F50.0; Z feedrate
G1 Z0.0; Z drawing height
G1 F1500.0; XY feedrate
G1 X69.2 Y64.3; draw line
G1 X69.7 Y63.7; draw line
G1 X70.7 Y63.2; draw line
G1 X71.5 Y63.2; draw line
G1 X72.4 Y63.7; draw line
G1 X72.8 Y64.6; draw line
G1 X72.0 Y64.9; draw line
G1 X71.9 Y64.6; draw line
G1 X71.5 Y64.2; draw line
G1 X71.0 Y64.1; draw line
G1 X70.7 Y64.2; draw line
G1 X70.2 Y64.6; draw line
G1 X70.3 Y65.7; draw line
G1 X70.8 Y66.1; draw line
G1 X71.3 Y66.1; draw line
G1 X71.8 Y65.7; draw line
G1 X72.8 Y64.6; draw line
G1 X72.8 Y65.6; draw line
G1 X72.4 Y66.5; draw line
G1 X71.3 Y67.0; draw line
G1 X70.6 Y67.0; draw line
G1 X69.6 Y66.5; draw line
G1 X69.1 Y65.6; draw line
G1 X69.1 Y64.7; draw back to polygon start
G1 F50.0; Z feedrate
G1 Z1.0; Z clearance height
G1 F1500.0; XY feedrate
G1 X78.3 Y60.9; move to polygon start
G1 F50.0; Z feedrate
G1 Z0.0; Z drawing height
G1 F1500.0; XY feedrate
G1 X78.7 Y61.0; draw line
G1 X78.7 Y64.1; draw line
G1 X78.4 Y64.2; draw line
G1 X78.3 Y60.9; draw back to polygon start
G1 F50.0; Z feedrate
G1 Z1.0; Z clearance height
G1 F1500.0; XY feedrate
G1 X50.6 Y32.2; move to polygon start
G1 F50.0; Z feedrate
G1 Z0.0; Z drawing height
G1 F1500.0; XY feedrate
G1 X50.8 Y32.0; draw line
G1 X60.8 Y32.0; draw line
G1 X60.8 Y32.3; draw line
G1 X51.1 Y32.3; draw line
G1 X50.7 Y32.6; draw line
G1 X50.6 Y32.2; draw back to polygon start
G1 F50.0; Z feedrate
G1 Z1.0; Z clearance height
G1 F1500.0; XY feedrate
G1 X41.3 Y28.5; move to polygon start
G1 F50.0; Z feedrate
G1 Z0.0; Z drawing height
G1 F1500.0; XY feedrate
G1 X41.6 Y28.2; draw line
G1 X46.1 Y32.7; draw line
G1 X46.1 Y34.6; draw line
G1 X46.3 Y34.9; draw line
G1 X46.7 Y35.1; draw line
G1 X56.2 Y35.2; draw line
G1 X57.4 Y36.3; draw line
G1 X58.9 Y36.3; draw line
G1 X58.8 Y36.7; draw line
G1 X59.6 Y37.5; draw line
G1 X60.0 Y37.6; draw line
G1 X60.0 Y40.9; draw line
G1 X60.2 Y41.2; draw line
G1 X60.8 Y41.5; draw line
G1 X60.8 Y41.8; draw line
G1 X59.7 Y41.8; draw line
G1 X58.8 Y36.7; draw line
G1 X57.2 Y36.7; draw line
G1 X55.7 Y35.5; draw line
G1 X46.5 Y35.5; draw line
G1 X46.2 Y35.8; draw line
G1 X46.1 Y36.4; draw line
G1 X46.1 Y39.1; draw line
G1 X45.8 Y39.2; draw line
G1 X44.3 Y39.0; draw line
G1 X44.4 Y38.7; draw line
G1 X45.3 Y38.7; draw line
G1 X45.6 Y38.5; draw line
G1 X45.7 Y37.8; draw line
G1 X45.5 Y32.7; draw line
G1 X41.3 Y28.5; draw back to polygon start
G1 F50.0; Z feedrate
G1 Z1.0; Z clearance height
G1 F1500.0; XY feedrate
M0 ; stop RepRap
